!!!COM: Vivaldi, Antonio
!!!OTL: Concerto a violino solo, No. 3
!!!XEN: Violin Concerto No. 3
!!!OTP: L'Autunno
!!!OTA: The Four Seasons, Autumn
!!!OPR: Il Cimento dell'armonia e dell'inventione
!!!XEN: The Contest of Harmony and Invention
!!!OPS: Opus 8
!!!ONM: No. 3
!!!OMV: Movement 1.
!!!YEC: Copyright 1996, Center for Computer Assisted Research in the Humanities
!!!YEM: Rights to all derivative electronic formats reserved.
!!!YEM: Refer to licensing agreement for important restrictions.
!!!OMD: Allegro
**kern	**kern	**kern	**kern	**kern	**Bnum
*Icello	*Iviola	*Ivioln	*Ivioln	*Ivioln	*Icemba
*Icemba	*	*	*	*	*
*ICstr	*ICstr	*ICstr	*ICstr	*ICstr	*ICklav
*ICklav	*	*	*	*	*
!cello	!viola	!violino 2	!violino 1	!violino principale	!continuo
!basso continuo	!	!	!	!	!
*clefF4	*clefC3	*clefG2	*clefG2	*clefG2	*
*k[b-]	*k[b-]	*k[b-]	*k[b-]	*k[b-]	*k[b-]
*F:	*F:	*F:	*F:	*F:	*F:
*M4/4	*M4/4	*M4/4	*M4/4	*M4/4	*M4/4
*>Selfridge-Field[etc1,S2,etc2,S60,etc3,S62,etc4]	*>Selfridge-Field[etc1,S2,etc2,S60,etc3,S62,etc4]	*>Selfridge-Field[etc1,S2,etc2,S60,etc3,S62,etc4]	*>Selfridge-Field[etc1,S2,etc2,S60,etc3,S62,etc4]	*>Selfridge-Field[etc1,S2,etc2,S60,etc3,S62,etc4]	*>Selfridge-Field[etc1,S2,etc2,S60,etc3,S62,etc4]
*>Manchester[etc1,S2,etc2,S60,etc3,S62,etc4]	*>Manchester[etc1,S2,etc2,S60,etc3,S62,etc4]	*>Manchester[etc1,S2,etc2,S60,etc3,S62,etc4]	*>Manchester[etc1,S2,etc2,S60,etc3,S62,etc4]	*>Manchester[etc1,S2,etc2,S60,etc3,S62,etc4]	*>Manchester[etc1,S2,etc2,S60,etc3,S62,etc4]
*>Amsterdam[etc1,A2,etc2,A60,etc3,A62,etc4]	*>Amsterdam[etc1,A2,etc2,A60,etc3,A62,etc4]	*>Amsterdam[etc1,A2,etc2,A60,etc3,A62,etc4]	*>Amsterdam[etc1,A2,etc2,A60,etc3,A62,etc4]	*>Amsterdam[etc1,A2,etc2,A60,etc3,A62,etc4]	*>Amsterdam[etc1,A2,etc2,A60,etc3,A62,etc4]
*>etc1	*>etc1	*>etc1	*>etc1	*>etc1	*>etc1
=1-	=1-	=1-	=1-	=1-	=1-
8F\L	8a\L	8ff\L	8aa\L	8aa\L	.
8F\	8a\	8ff\	8aa\	8aa\	.
8F\	8a\	8ff\	8aa\	8aa\	.
8C\J	8e\J	8gg\J	8bb-\J	8bb-\J	7
4F\	4a\	4ff\	4aa\	4aa\	.
8F\L	8a\L	8ff\L	8aa\L	8aa\L	.
8C\J	8e\J	8gg\J	8bb-\J	8bb-\J	7
=2	=2	=2	=2	=2	=2
8F\L	8a\L	8ff\L	8aa\L	8aa\L	.
8F\	8a\	8ff\	8aa\	8aa\	.
8F\	8a\	8ff\	8aa\	8aa\	.
8C\J	8e\J	8gg\J	8bb-\J	8bb-\J	7
4F\	4a\	4ff\	4aa\	4aa\	.
!!  Cf. tr. 1, same location.  
*>A2	*>A2	*>A2	*>A2	*>A2	*>A2
!!  Amsterdam print in obvious error here; the two pitches have been transposed (A5, Bf5).
8F\L	8a\L	8ff\L	8bb-\L	8bb-\L	.
8C\J	8e\J	8gg\J	8aa\J	8aa\J	7
*>S2	*>S2	*>S2	*>S2	*>S2	*>S2
!!  Selfridge-Field edition.
8F\L	8a\L	8ff\L	8aa\L	8aa\L	.
8C\J	8e\J	8gg\J	8bb-\J	8bb-\J	7
*>etc2	*>etc2	*>etc2	*>etc2	*>etc2	*>etc2
=3	=3	=3	=3	=3	=3
8F\L	8a\L	8ff\L	8aa\L	8aa\L	.
8F\	8a\	16ee\L	16gg\L	16gg\L	.
.	.	16ff\JJ	16aa\JJ	16aa\JJ	.
8BB-\	8d\	8gg\L	8bb-\L	8bb-\L	.
8BBn\J	8d\J	8ff\J	8aa\J	8aa\J	7 5
4C/	4e\	4ee\	4gg\	4gg\	.
4r	4r	4r	4r	4r	.
=4	=4	=4	=4	=4	=4
8F\L	8A/L	8f/L	8a/L	8a/L	.
8F\	8A/	8f/	8a/	8a/	.
8F\	8A/	8f/	8a/	8a/	.
8C\J	8E/J	8g/J	8b-/J	8b-/J	7
4F\	4A/	4f/	4a/	4a/	.
8F\L	8A/L	8f/L	8a/L	8a/L	.
8C\J	8E/J	8g/J	8b-/J	8b-/J	7
=5	=5	=5	=5	=5	=5
8F\L	8A/L	8f/L	8a/L	8a/L	.
8F\	8A/	8f/	8a/	8a/	.
8F\	8A/	8f/	8a/	8a/	.
8C\J	8E/J	8g/J	8b-/J	8b-/J	7
4F\	4A/	4f/	4a/	4a/	.
8F\L	8A/L	8f/L	8a/L	8a/L	.
8C\J	8E/J	8g/J	8b-/J	8b-/J	7
=6	=6	=6	=6	=6	=6
8F\L	8A/L	8f/L	8a/L	8a/L	.
8F\	8A/	16e/L	16g/L	16g/L	.
.	.	16f/JJ	16a/JJ	16a/JJ	.
8BB-\	8d/	8g/L	8b-/L	8b-/L	.
8BBn\J	8d/J	8f/J	8a/J	8a/J	7 5
4C/	4e\	4e/	4g/	4g/	.
4r	4r	4r	4r	4r	.
=7	=7	=7	=7	=7	=7
8F\L	8cc\L	8ff\L	8aa\L	8aa\L	.
8A\	8cc\	8ff\	8aa\	8aa\	.
8A\	8cc\	8ff\	8aa\	8aa\	.
8F\J	8cc\J	8aa\J	8ccc\J	8ccc\J	.
4G\	4b-\	4b-\	4dd\	4dd\	.
8G\L	8b-\L	8b-\L	8dd\L	8dd\L	.
8G\J	8b-\J	8b-\J	8dd\J	8dd\J	.
=8	=8	=8	=8	=8	=8
8G\L	8b-\L	8ee\L	8gg\L	8gg\L	6
8c\	8b-\	8ee\	8gg\	8gg\	.
8c\	8b-\	8ee\	8gg\	8gg\	.
8C\J	8b-\J	8gg\J	8bb-\J	8bb-\J	7
4F\	4a\	4a/	4cc\	4cc\	.
8F\L	8a\L	8a\L	8cc\L	8cc\L	.
8F\J	8a\J	8cc\J	8ff\J	8ff\J	.
=9	=9	=9	=9	=9	=9
8F\L	8a\L	8ff\L	8aa\L	8aa\L	.
8F\	8a\	8ff\	8aa\	8aa\	.
8F\	8a\	8ff\	8aa\	8aa\	.
8C\J	8e\J	8gg\J	8bb-\J	8bb-\J	7
8F\L	8a\L	8ff\L	8aa\L	8aa\L	.
8F\	8a\	8ff\	8aa\	8aa\	.
8F\	8a\	8ff\	8aa\	8aa\	.
8C\J	8e\J	8gg\J	8bb-\J	8bb-\J	7
=10	=10	=10	=10	=10	=10
8F\L	8a\L	8ff\L	8aa\L	8aa\L	.
8F\	8a\	8ff\	8aa\	8aa\	.
8F\	8a\	8ff\	8aa\	8aa\	.
8C\J	8e\J	8gg\J	8bb-\J	8bb-\J	7
8F\L	8a\L	8ff\L	8aa\L	8aa\L	.
8F\	8a\	16ee\L	16gg\L	16gg\L	.
.	.	16ff\JJ	16aa\JJ	16aa\JJ	.
8BB-\	8d\	8gg\L	8bb-\L	8bb-\L	.
8C\J	8c\J	8ee\J	8gg\J	8gg\J	.
=11	=11	=11	=11	=11	=11
4FF/	4c\	4ff\	4aa\	4aa\	.
4r	4r	4r	4r	4r	.
8F\L	8A/L	8f/L	8a/L	8a/L	.
8F\	8A/	8f/	8a/	8a/	.
8F\	8A/	8f/	8a/	8a/	.
8C\J	8E/J	8g/J	8b-/J	8b-/J	7
=12	=12	=12	=12	=12	=12
8F\L	8A/L	8f/L	8a/L	8a/L	.
8F\	8A/	8f/	8a/	8a/	.
8F\	8A/	8f/	8a/	8a/	.
8C\J	8E/J	8g/J	8b-/J	8b-/J	7
8F\L	8A/L	8f/L	8a/L	8a/L	.
8F\	8A/	8f/	8a/	8a/	.
8F\	8A/	8f/	8a/	8a/	.
8C\J	8E/J	8g/J	8b-/J	8b-/J	7
=13	=13	=13	=13	=13	=13
8F\L	8A/L	8f/L	8a/L	8a/L	.
8F\	8A/	16e/L	16g/L	16g/L	.
.	.	16f/JJ	16a/JJ	16a/JJ	.
8BB-\	8d/	8g/L	8b-/L	8b-/L	.
8C\J	8c/J	8e/J	8g/J	8g/J	.
4FF/	4c\	4f/	4f/	4f/	.
4r	4r	4r	4r	4r	.
=14	=14	=14	=14	=14	=14
8F\L	1r	1r	1r	8ff\ 8aa\L	.
8F\	.	.	.	8ff\ 8aa\	.
8F\	.	.	.	8ff\ 8aa\	.
8C\J	.	.	.	8gg\ 8bb-\J	7
4F\	.	.	.	4ff\ 4aa\	.
8F\L	.	.	.	8ff\ 8aa\L	.
8C\J	.	.	.	8gg\ 8bb-\J	7
=15	=15	=15	=15	=15	=15
8F\L	1r	1r	1r	8ff\ 8aa\L	.
8F\	.	.	.	8ff\ 8aa\	.
8F\	.	.	.	8ff\ 8aa\	.
8C\J	.	.	.	8gg\ 8bb-\J	7
4F\	.	.	.	4ff\ 4aa\	.
8F\L	.	.	.	8ff\ 8aa\L	.
8C\J	.	.	.	8gg\ 8bb-\J	7
=16	=16	=16	=16	=16	=16
8F\L	1r	1r	1r	8ff\ 8aa\L	.
8F\	.	.	.	16ee\ 16gg\L	.
.	.	.	.	16ff\ 16aa\JJ	.
8BB-\	.	.	.	8gg\ 8bb-\L	.
8BBn\J	.	.	.	8ff\ 8aa\J	7 5
4C/	.	.	.	4ee\ 4gg\	.
4r	.	.	.	4r	.
=17	=17	=17	=17	=17	=17
8f\L	1r	1r	1r	8ff\ 8aa\L	.
8f\	.	.	.	8ff\ 8aa\	.
8f\	.	.	.	8ff\ 8aa\	.
8c\J	.	.	.	8gg\ 8bb-\J	7
4f\	.	.	.	4ff\ 4aa\	.
8f\L	.	.	.	8ff\ 8aa\L	.
8c\J	.	.	.	8gg\ 8bb-\J	7
=18	=18	=18	=18	=18	=18
8f\L	1r	1r	1r	8ff\ 8aa\L	.
8f\	.	.	.	8ff\ 8aa\	.
8f\	.	.	.	8ff\ 8aa\	.
8c\J	.	.	.	8gg\ 8bb-\J	7
4f\	.	.	.	4ff\ 4aa\	.
8f\L	.	.	.	8ff\ 8aa\L	.
8c\J	.	.	.	8gg\ 8bb-\J	7
=19	=19	=19	=19	=19	=19
8f\L	1r	1r	1r	8ff\ 8aa\L	.
8f\	.	.	.	16ee\ 16gg\L	.
.	.	.	.	16ff\ 16aa\JJ	.
8B-\	.	.	.	8gg\ 8bb-\L	.
8Bn\J	.	.	.	8ff\ 8aa\J	7 5
4c\	.	.	.	4ee\ 4gg\	.
4r	.	.	.	4r	.
=20	=20	=20	=20	=20	=20
8f\L	1r	1r	1r	8aa\ 8fff\L	.
8f\	.	.	.	8aa\ 8ccc\	.
8f\	.	.	.	8aa\ 8ccc\	.
8f\J	.	.	.	8aa\ 8ccc\J	.
4B-\	.	.	.	4bb-\ 4ddd\	.
8F\L	.	.	.	8aa\ 8ccc\L	.
8f\J	.	.	.	8aa\ 8ccc\J	.
=21	=21	=21	=21	=21	=21
8f\L	1r	1r	1r	8aa\ 8fff\L	.
8f\	.	.	.	8aa\ 8ccc\	.
8f\	.	.	.	8aa\ 8ccc\	.
8f\J	.	.	.	8aa\ 8ccc\J	.
4B-\	.	.	.	4bb-\ 4ddd\	.
8F\L	.	.	.	8aa\ 8ccc\L	.
8f\J	.	.	.	8aa\ 8ccc\J	.
=22	=22	=22	=22	=22	=22
4B-\	1r	1r	1r	4bb-\ 4ddd\	.
8F\L	.	.	.	8aa\ 8ccc\L	.
8f\J	.	.	.	8aa\ 8ccc\J	.
4f\	.	.	.	8fff\L	.
.	.	.	.	16eee\L	.
.	.	.	.	16ddd\JJ	.
4e\	.	.	.	8ccc\L	.
.	.	.	.	8bb-\J	.
=23	=23	=23	=23	=23	=23
4f\	1r	1r	1r	4cc\ 4aa\	.
4c\	.	.	.	4b-\ 4gg\	.
4F\	.	.	.	4a\ 4ff\	.
4r	.	.	.	4r	.
=24	=24	=24	=24	=24	=24
8F\L	1r	1r	1r	8a\ 8ff\L	.
8F\	.	.	.	8a\ 8cc\	.
8F\	.	.	.	8a\ 8cc\	.
8F\J	.	.	.	8a\ 8cc\J	.
4BB-/	.	.	.	4b-\ 4dd\	.
8FF/L	.	.	.	8a\ 8cc\L	.
8F/J	.	.	.	8a\ 8cc\J	.
=25	=25	=25	=25	=25	=25
8F\L	1r	1r	1r	8a\ 8ff\L	.
8F\	.	.	.	8a\ 8cc\	.
8F\	.	.	.	8a\ 8cc\	.
8F\J	.	.	.	8a\ 8cc\J	.
4BB-/	.	.	.	4b-\ 4dd\	.
8FF/L	.	.	.	8a\ 8cc\L	.
8F/J	.	.	.	8a\ 8cc\J	.
=26	=26	=26	=26	=26	=26
4BB-/	1r	1r	1r	4b-\ 4dd\	.
8FF/L	.	.	.	8a\ 8cc\L	.
8F/J	.	.	.	8a\ 8cc\J	.
4F\	.	.	.	8ff\L	.
.	.	.	.	16ee\L	.
.	.	.	.	16dd\JJ	.
4E\	.	.	.	8cc\L	.
.	.	.	.	8b-\J	.
=27	=27	=27	=27	=27	=27
*	*	*	*	*^	*
4F\	2r	2r	2r	4a\	4cc\	.
4C/	.	.	.	4g/	4b-/	.
8F\L	8a\L	8ff\L	8aa\L	8f\L	4a/	.
8F\	8a\	8ff\	8aa\	8aa\	.	.
*	*	*	*	*v	*v	*
*	*	*	*	*	*
!	!	!	!	!	!
!	!	!	!	!	!
*	*	*	*	*	*
8F\	8a\	8ff\	8aa\	8aa\	.
8C\J	8e\J	8gg\J	8bb-\J	8bb-\J	7
=28	=28	=28	=28	=28	=28
8F\L	8a\L	8ff\L	8aa\L	8aa\L	.
8F\	8a\	8ff\	8aa\	8aa\	.
8F\	8a\	8ff\	8aa\	8aa\	.
8C\J	8e\J	8gg\J	8bb-\J	8bb-\J	7
8F\L	8a\L	8ff\L	8aa\L	8aa\L	.
8F\	8a\	8ff\	8aa\	8aa\	.
8F\	8a\	8ff\	8aa\	8aa\	.
8C\J	8e\J	8gg\J	8bb-\J	8bb-\J	7
=29	=29	=29	=29	=29	=29
8F\L	8a\L	8ff\L	8aa\L	8aa\L	.
8F\	8a\	16ee\L	16gg\L	16gg\L	.
.	.	16ff\JJ	16aa\JJ	16aa\JJ	.
8BB-\	8d\	8gg\L	8bb-\L	8bb-\L	.
8C\J	8c\J	8ee\J	8gg\J	8gg\J	.
4FF/	4c\	4ff\	4aa\	4aa\	.
4r	4r	4r	4r	4r	.
=30	=30	=30	=30	=30	=30
8F\L	8A/L	8f/L	8a/L	8a/L	.
8F\	8A/	8f/	8a/	8a/	.
8F\	8A/	8f/	8a/	8a/	.
8C\J	8E/J	8g/J	8b-/J	8b-/J	7
8F\L	8A/L	8f/L	8a/L	8a/L	.
8F\	8A/	8f/	8a/	8a/	.
8F\	8A/	8f/	8a/	8a/	.
8C\J	8E/J	8g/J	8b-/J	8b-/J	7
=31	=31	=31	=31	=31	=31
8F\L	8A/L	8f/L	8a/L	8a/L	.
8F\	8A/	8f/	8a/	8a/	.
8F\	8A/	8f/	8a/	8a/	.
8C\J	8E/J	8g/J	8b-/J	8b-/J	7
8F\L	8A/L	8f/L	8a/L	8a/L	.
8F\	8A/	16e/L	16g/L	16g/L	.
.	.	16f/JJ	16a/JJ	16a/JJ	.
8BB-\	8D/	8g/L	8b-/L	8b-/L	.
8C\J	8C/J	8e/J	8g/J	8g/J	.
=32	=32	=32	=32	=32	=32
4FF/	4C/	4f/	4a/	4a/	.
4r	4r	4r	4r	4r	.
4F\	2r	2r	2r	16fff\LL	.
.	.	.	.	16ccc\	.
.	.	.	.	16aa\	.
.	.	.	.	16ff\JJ	.
16r	.	.	.	16fff\LL	.
16f\LL	.	.	.	16ccc\	.
16c\	.	.	.	16aa\	.
16A\JJ	.	.	.	16ff\JJ	.
=33	=33	=33	=33	=33	=33
4F\	1r	1r	1r	16fff\LL	.
.	.	.	.	16ccc\	.
.	.	.	.	16aa\	.
.	.	.	.	16ff\JJ	.
16r	.	.	.	16fff\LL	.
16f\LL	.	.	.	16ccc\	.
16c\	.	.	.	16aa\	.
16A\JJ	.	.	.	16ff\JJ	.
4F\	.	.	.	16aa\LL	.
.	.	.	.	16ff\	.
.	.	.	.	16ff\	.
.	.	.	.	16cc\JJ	.
16r	.	.	.	16cc/LL	.
16F\LL	.	.	.	16a/	.
16A\	.	.	.	16a/	.
16c\JJ	.	.	.	16f/JJ	.
=34	=34	=34	=34	=34	=34
4f\	1r	1r	1r	16f/LL	.
.	.	.	.	16c/	.
.	.	.	.	16c/	.
.	.	.	.	16A/JJ	.
16r	.	.	.	16A/LL	.
16F/LL	.	.	.	16c/	.
16C/	.	.	.	16c/	.
16AA/JJ	.	.	.	16f/JJ	.
4FF/	.	.	.	16f/LL	.
.	.	.	.	16a/	.
.	.	.	.	16a/	.
.	.	.	.	16cc/JJ	.
16r	.	.	.	16cc\LL	.
16F\LL	.	.	.	16ff\	.
16A\	.	.	.	16ff\	.
16c\JJ	.	.	.	16aa\JJ	.
=35	=35	=35	=35	=35	=35
4f\	1r	1r	1r	16aa\LL	.
.	.	.	.	16ff\	.
.	.	.	.	16ff\	.
.	.	.	.	16cc\JJ	.
16r	.	.	.	16cc/LL	.
16F\LL	.	.	.	16a/	.
16A\	.	.	.	16a/	.
16c\JJ	.	.	.	16f/JJ	.
4f\	.	.	.	16f/LL	.
.	.	.	.	16c/	.
.	.	.	.	16c/	.
.	.	.	.	16A/JJ	.
*	*	*	*	*strophe	*
*	*	*	*	*^	*
*	*	*	*	*^	*	*
*	*	*	*	*S/S	*S/M	*S/A	*
16r	.	.	.	8A/	8A/	8c/	.
*	*	*	*	*S/fin	*S/fin	*S/fin	*
*	*	*	*	*v	*v	*v	*
*	*	*	*	*S-	*
16F/LL	.	.	.	.	.
16C/	.	.	.	8r	.
16AA/JJ	.	.	.	.	.
=36	=36	=36	=36	=36	=36
16FF\LL	1r	1r	1r	16fff\LL	.
16A\	.	.	.	(32eee\L	.
.	.	.	.	32ddd\JJJ	.
16B-\	.	.	.	32ccc\LLL	.
.	.	.	.	32bb-\	.
16c\JJ	.	.	.	32aa\	.
.	.	.	.	32gg\JJJ)	.
8d\L	.	.	.	8ff\L	.
8D\J	.	.	.	8f\J	.
8G\L	.	.	.	16eee\LL	.
.	.	.	.	(32ddd\L	.
.	.	.	.	32ccc\JJJ	.
16A\L	.	.	.	32bb-\LLL	.
.	.	.	.	32aa\	.
16B-\JJ	.	.	.	32gg\	.
.	.	.	.	32ff\JJJ)	.
8c\L	.	.	.	8ee/L	.
8C\J	.	.	.	8e/J	.
=37	=37	=37	=37	=37	=37
8F\L	1r	1r	1r	16ddd\LL	.
.	.	.	.	(32ccc\L	.
.	.	.	.	32bb-\JJJ	.
16G\L	.	.	.	32aa\LLL	.
.	.	.	.	32gg\	.
16A\JJ	.	.	.	32ff\	.
.	.	.	.	32ee\JJJ)	.
8B-\L	.	.	.	8dd/L	.
8BB-\J	.	.	.	8d/J	.
8E\L	.	.	.	16ccc\LL	.
.	.	.	.	(32bb-\L	.
.	.	.	.	32aa\JJJ	.
16F\L	.	.	.	32gg\LLL	.
.	.	.	.	32ff\	.
16G\JJ	.	.	.	32ee\	.
.	.	.	.	32dd\JJJ)	.
8A\L	.	.	.	8cc/L	.
8AA\J	.	.	.	8c/J	.
=38	=38	=38	=38	=38	=38
8D\L	1r	1r	1r	16bb-\LL	.
.	.	.	.	(32aa\L	.
.	.	.	.	32gg\JJJ	.
16E\L	.	.	.	32ff\LLL	.
.	.	.	.	32ee\	.
16F\JJ	.	.	.	32dd\	.
.	.	.	.	32cc\JJJ)	.
8G/L	.	.	.	8b-/L	.
8GG/J	.	.	.	8B-/J	.
8C\L	.	.	.	16aa\LL	.
.	.	.	.	(32gg\L	.
.	.	.	.	32ff\JJJ	.
16D\L	.	.	.	32ee\LLL	.
.	.	.	.	32dd\	.
16E\JJ	.	.	.	32cc\	.
.	.	.	.	32b-\JJJ)	.
8F/L	.	.	.	8a/L	.
8FF/J	.	.	.	8A/J	.
=39	=39	=39	=39	=39	=39
8F\L	8cc\L	8ff\L	8aa\L	2r	.
8F\	8cc\	8ff\	8aa\	.	.
8F\	8cc\	8ff\	8aa\	.	.
8C\J	8e\J	8gg\J	8bb-\J	.	7
4F\	4c\	4ff\	4aa\	24cc\LL	.
.	.	.	.	24dd\	.
.	.	.	.	24cc\JJ	.
.	.	.	.	24ff\LL	.
.	.	.	.	24gg\	.
.	.	.	.	24ff\JJ	.
4r	4r	4r	4r	24gg\LL	.
.	.	.	.	24aa\	.
.	.	.	.	24gg\JJ	.
.	.	.	.	24aa\LL	.
.	.	.	.	24bb-\	.
.	.	.	.	24aa\JJ	.
=40	=40	=40	=40	=40	=40
2r	2r	2r	2r	24bb-\LL	.
.	.	.	.	24ccc\	.
.	.	.	.	24bb-\JJ	.
.	.	.	.	24ccc\LL	.
.	.	.	.	24ddd\	.
.	.	.	.	24ccc\JJ	.
.	.	.	.	24ddd\LL	.
.	.	.	.	24eee\	.
.	.	.	.	24ddd\JJ	.
.	.	.	.	24eee\LL	.
.	.	.	.	24fff\	.
.	.	.	.	24eee\JJ	.
8F\L	8cc\L	8ff\L	8aa\L	4fff\	.
8F\	8cc\	8ff\	8aa\	.	.
8F\	8cc\	8ff\	8aa\	4r	.
8C\J	8e\J	8gg\J	8bb-\J	.	7
=41	=41	=41	=41	=41	=41
4F\	4c\	4ff\	4aa\	8aa\L	.
.	.	.	.	(32gg\LL	.
.	.	.	.	32ff\	.
.	.	.	.	32ee\	.
.	.	.	.	32dd\JJJ	.
4r	4r	4r	4r	32cc/LLL	.
.	.	.	.	32b-/	.
.	.	.	.	32a/	.
.	.	.	.	32g/JJJ	.
.	.	.	.	32f/LLL	.
.	.	.	.	32e/	.
.	.	.	.	32d/	.
.	.	.	.	32c/JJJ)	.
4r	4r	16r	16r	4Bn/	.
.	.	16g\LL	16g\LL	.	.
.	.	16bn\	16bn\	.	.
.	.	16dd\JJ	16dd\JJ	.	.
16r	16r	4gg\	4gg\	4r	.
16G\LL	16g\LL	.	.	.	n
16D\	16d\	.	.	.	.
16BBn\JJ	16Bn\JJ	.	.	.	.
=42	=42	=42	=42	=42	=42
4GG/	4G/	2r	2r	8gg\L	.
.	.	.	.	(32ff\LL	.
.	.	.	.	32ee\	.
.	.	.	.	32dd\	.
.	.	.	.	32cc\JJJ	.
4r	4r	.	.	32bn/LLL	.
.	.	.	.	32a/	.
.	.	.	.	32g/	.
.	.	.	.	32f/JJJ	.
.	.	.	.	32e/LLL	.
.	.	.	.	32d/	.
.	.	.	.	32c/	.
.	.	.	.	32Bn/JJJ)	.
4r	4r	16r	16r	4A/	.
.	.	16f/LL	16f/LL	.	.
.	.	16a/	16a/	.	.
.	.	16cc/JJ	16cc/JJ	.	.
16r	16r	4ff\	4ff\	4r	.
16F/LL	16f\LL	.	.	.	.
16C/	16c\	.	.	.	.
16AA/JJ	16A\JJ	.	.	.	.
=43	=43	=43	=43	=43	=43
4FF/	4F/	2r	2r	8ff\L	.
.	.	.	.	(32ee\LL	.
.	.	.	.	32dd\	.
.	.	.	.	32cc\	.
.	.	.	.	32bn\JJJ	.
4r	4r	.	.	32a/LLL	.
.	.	.	.	32g/	.
.	.	.	.	32f/	.
.	.	.	.	32e/JJJ	.
.	.	.	.	32d/LLL	.
.	.	.	.	32c/	.
.	.	.	.	32Bn/	.
.	.	.	.	32A/JJJ)	.
4r	4r	16r	16r	4G#/	.
.	.	16e/LL	16e/LL	.	.
.	.	16g#/	16g#/	.	.
.	.	16bn/JJ	16bn/JJ	.	.
16r	16r	4ee\	4ee\	4r	.
16E/LL	16e/LL	.	.	.	#
16BBn/	16Bn/	.	.	.	.
16GG#/JJ	16G#/JJ	.	.	.	.
=44	=44	=44	=44	=44	=44
4EE/	4E/	2r	2r	8r	.
.	.	.	.	(8gg#\L	.
4r	4r	.	.	8aa\	.
.	.	.	.	8bbn\J)	.
(8d\L	(8dd\L	(8dd\L	(8dd\L	[2ff\	.
8c\	8cc\	8cc\	8cc\	.	.
8Bn\	8bn\	8bn\	8bn\	.	.
8A\J	8a\J	8a\J	8a\J	.	.
=45	=45	=45	=45	=45	=45
8G#\L	8g#\L	8g#/L	8g#/L	2ff\]	.
8Fn\	8fn\	8fn/	8fn/	.	.
8E\	8e\	8e/	8e/	.	.
8D\J)	8d\J)	8d/J)	8d/J)	.	.
4GG#/	4G#/	4G#/	4G#/	24dd\LL	7
.	.	.	.	24ff\	.
.	.	.	.	24dd\JJ	.
.	.	.	.	24bn\LL	.
.	.	.	.	24dd\	.
.	.	.	.	24b\JJ	.
4r	4r	4r	4r	24g#/LL	.
.	.	.	.	24b/	.
.	.	.	.	24g#/JJ	.
.	.	.	.	24e/LL	.
.	.	.	.	24g#/	.
.	.	.	.	24e/JJ	.
=46	=46	=46	=46	=46	=46
4r	4r	16r	16r	4c#/	.
.	.	16a\LL	16a\LL	.	.
.	.	16cc#\	16cc#\	.	.
.	.	16ee\JJ	16ee\JJ	.	.
16r	16r	4aa\	4aa\	4r	.
16A\LL	16a\LL	.	.	.	#
16E\	16e\	.	.	.	.
16C#\JJ	16c#\JJ	.	.	.	.
4AA/	4A/	2r	2r	8r	.
.	.	.	.	(8ccc#\L	.
4r	4r	.	.	8ddd\	.
.	.	.	.	8eee\J)	.
=47	=47	=47	=47	=47	=47
(8e\L	(8ee\L	(8ee\L	(8ee\L	1gg\	.
8d\	8dd\	8dd\	8dd\	.	.
8c#\	8cc#\	8cc#\	8cc#\	.	.
8B-\J	8b-\J	8b-\J	8b-\J	.	.
8A\L	8a\L	8a/L	8a/L	.	.
8G\	8g\	8g/	8g/	.	.
8F\	8f\	8f/	8f/	.	.
8E\J)	8e\J)	8e/J)	8e/J)	.	.
=48	=48	=48	=48	=48	=48
4AA/	4A/	4A/	4A/	24gg\LL	7 #
.	.	.	.	24bb-\	.
.	.	.	.	24gg\JJ	.
.	.	.	.	24ee\LL	.
.	.	.	.	24gg\	.
.	.	.	.	24ee\JJ	.
4r	4r	4r	4r	24cc#\LL	.
.	.	.	.	24ee\	.
.	.	.	.	24cc#\JJ	.
.	.	.	.	24g\LL	.
.	.	.	.	24cc#\	.
.	.	.	.	24g\JJ	.
4r	4r	16r	16r	4f#/	.
.	.	16d/LL	16d/LL	.	.
.	.	16f#/	16f#/	.	.
.	.	16a/JJ	16a/JJ	.	.
16r	16r	4dd\	4dd\	4r	.
16d\LL	16dd\LL	.	.	.	#
16A\	16a\	.	.	.	.
16F#\JJ	16f#\JJ	.	.	.	.
=49	=49	=49	=49	=49	=49
4D\	4d\	2r	2r	24ccc\LL	7
.	.	.	.	24eee-\	.
.	.	.	.	24ddd\JJ	.
.	.	.	.	24ccc\LL	.
.	.	.	.	24ddd\	.
.	.	.	.	24eee-\JJ	.
4r	4r	.	.	24aa\LL	.
.	.	.	.	24ccc\	.
.	.	.	.	24bb-\JJ	.
.	.	.	.	24aa\LL	.
.	.	.	.	24bb-\	.
.	.	.	.	24ccc\JJ	.
4D\	4d\	4d/	4d/	24ff#\LL	.
.	.	.	.	24aa\	.
.	.	.	.	24gg\JJ	.
.	.	.	.	24ff#\LL	.
.	.	.	.	24gg\	.
.	.	.	.	24aa\JJ	.
4r	4r	4r	4r	24cc\LL	.
.	.	.	.	24ee-\	.
.	.	.	.	24dd\JJ	.
.	.	.	.	24cc\LL	.
.	.	.	.	24dd\	.
.	.	.	.	24ee-\JJ	.
=50	=50	=50	=50	=50	=50
4D\	4d\	4d/	4d/	24a\LL	.
.	.	.	.	24cc\	.
.	.	.	.	24b-\JJ	.
.	.	.	.	24a\LL	.
.	.	.	.	24b-\	.
.	.	.	.	24cc\JJ	.
4r	4r	4r	4r	24f#/LL	.
.	.	.	.	24a/	.
.	.	.	.	24g/JJ	.
.	.	.	.	24f#/LL	.
.	.	.	.	24g/	.
.	.	.	.	24a/JJ	.
16G\LL	2r	2r	2r	(4b-T\	.
16GG\	.	.	.	.	.
16GG\	.	.	.	.	.
16G\JJ	.	.	.	.	.
16A\LL	.	.	.	4ccT\	.
16AA\	.	.	.	.	.
16AA\	.	.	.	.	.
16A\JJ	.	.	.	.	.
=51	=51	=51	=51	=51	=51
16B-\LL	1r	1r	1r	4ddT\	.
16BB-\	.	.	.	.	.
16BB-\	.	.	.	.	.
16B-\JJ	.	.	.	.	.
16c\LL	.	.	.	4eeT\	.
16C\	.	.	.	.	.
16C\	.	.	.	.	.
16c\JJ	.	.	.	.	.
16d\LL	.	.	.	4ff#t\	#
16D\	.	.	.	.	.
16D\	.	.	.	.	.
16d\JJ	.	.	.	.	.
*strophe	*	*	*	*	*
*^	*	*	*	*	*
*^	*	*	*	*	*	*
*S/S	*S/M	*S/A	*	*	*	*	*
16e-\LL	16e-\LL	16e\LL	.	.	.	4ggT\	.
16E-\	16E-\	16E\	.	.	.	.	.
16E-\	16E-\	16E\	.	.	.	.	.
16e-\JJ	16e-\JJ	16e\JJ	.	.	.	.	.
*S/fin	*S/fin	*S/fin	*	*	*	*	*
*v	*v	*v	*	*	*	*	*
*S-	*	*	*	*	*
=52	=52	=52	=52	=52	=52
16F#/LL	2r	2r	2r	4aat\	.
16FF#/	.	.	.	.	.
16FF#/	.	.	.	.	.
16F#/JJ	.	.	.	.	.
16G/LL	.	.	.	4bb-T\)	.
16GG/	.	.	.	.	.
16GG/	.	.	.	.	.
16G/JJ	.	.	.	.	.
4D\	4r	16r	16r	[2ccc\	.
.	.	16dd/LL	16dd/LL	.	.
.	.	16a/	16a/	.	.
.	.	16f#/JJ	16f#/JJ	.	.
16r	16r	4d/	4d/	.	.
16d\LL	16dd\LL	.	.	.	.
16A\	16a\	.	.	.	.
16F#\JJ	16f#\JJ	.	.	.	.
=53	=53	=53	=53	=53	=53
4D\	4d\	1r	1r	32ccc\LLL]	#
.	.	.	.	(32bb-\	.
.	.	.	.	32aa\	.
.	.	.	.	32gg\JJJ	.
.	.	.	.	32ff#\LLL	.
.	.	.	.	32ee\	.
.	.	.	.	32dd\	.
.	.	.	.	32cc\JJJ	.
4r	4r	.	.	32b-/LLL	.
.	.	.	.	32a/	.
.	.	.	.	32g/	.
*	*	*	*	*strophe	*
*	*	*	*	*^	*
*	*	*	*	*^	*	*
*	*	*	*	*S/S	*S/M	*S/A	*
.	.	.	.	32f#/JJJ	32f#/JJJ	32fn/JJJ	.
*	*	*	*	*S/fin	*S/fin	*S/fin	*
*	*	*	*	*v	*v	*v	*
*	*	*	*	*S-	*
.	.	.	.	32e/LLL	.
.	.	.	.	32d/	.
.	.	.	.	32c/	.
.	.	.	.	64B-/L	.
.	.	.	.	64A/JJJJ	.
8GG/	2r	.	.	8G/L)	.
8r	.	.	.	8gg\J	.
8D\	.	.	.	8r	#
8r	.	.	.	8ff#\	.
=54	=54	=54	=54	=54	=54
8C/	1r	1r	1r	8r	6
8r	.	.	.	8aa\	.
8BB-/	.	.	.	8r	6
8r	.	.	.	8gg\	.
8E-\	.	.	.	8r	6
8r	.	.	.	8ccc\	.
8D\	.	.	.	8r	6
8r	.	.	.	8bb-\	.
=55	=55	=55	=55	=55	=55
8C/	1r	1r	1r	8r	b6
8r	.	.	.	8aa-\	.
8BB-/	.	.	.	8r	6
8r	.	.	.	8gg\	.
8G\	.	.	.	8r	b6
8r	.	.	.	8ee-\	.
8F\	.	.	.	8r	6
8r	.	.	.	8dd\	.
=56	=56	=56	=56	=56	=56
8E-\	1r	1r	1r	8r	6\
8r	.	.	.	8cc#\	.
8D\	.	.	.	8r	#
8r	.	.	.	8dd\	.
8C/	.	.	.	8r	b6
8r	.	.	.	8a-/	.
8D\	.	.	.	8r	#
8r	.	.	.	8f#/	.
=57	=57	=57	=57	=57	=57
8G\L	8g\L	8b-\L	8dd\L	8g\L	.
8G\	8g\	8b-\	8dd\	8dd\	.
8G\	8g\	8b-\	8dd\	8dd\	.
8C\J	8g\J	8cc\J	8ee-\J	8ee-\J	b
4G\	4g\	4b-\	4dd\	4dd\	.
8G\L	8g\L	8b-\L	8dd\L	8dd\L	.
8C\J	8g\J	8cc\J	8ee-\J	8ee-\J	b
=58	=58	=58	=58	=58	=58
8G\L	8g\L	8b-\L	8dd\L	8dd\L	.
8G\	8g\	8b-\	8dd\	8dd\	.
8G\	8g\	8b-\	8dd\	8dd\	.
8G\J	8g\J	8cc\J	8ee-\J	8ee-\J	b6
8A\L	8f#\L	8a/L	8cc\L	8cc\L	6\
8A\	8f#\	8a/	8cc\	8cc\	.
8D\	8f#\	8a/	8cc\	8cc\	7 #
8D\J	8f#\J	8b-/J	8dd\J	8dd\J	.
=59	=59	=59	=59	=59	=59
8G\L	8d\L	8g/L	8b-\L	8b-\L	.
8G\	8d\	16f#/L	16a\L	16a\L	.
.	.	16g/JJ	16b-\JJ	16b-\JJ	.
8C\	8e-\	8a/L	8cc\L	8cc\L	b
8C#\J	8en\J	8g/J	8b-\J	8b-\J	7 5 n
8D\L	8A\L	4f#/	4a/	4a/	#
8D\	8a\	.	.	.	.
8D\	8a\	4r	8r	8r	.
*strophe	*	*	*	*	*
*^	*	*	*	*	*
*^	*	*	*	*	*	*
*S/S	*S/M	*S/A	*	*	*	*	*
8Cn\J	8Cn\J	8C#\J	8a\J	.	8ff#\	8ff#\	.
*S/fin	*S/fin	*S/fin	*	*	*	*	*
*v	*v	*v	*	*	*	*	*
*S-	*	*	*	*	*
*>S60	*>S60	*>S60	*>S60	*>S60	*>S60
!! Selfridge-Field edition.
=60	=60	=60	=60	=60	=60
8BB/L	8d\L	4r	8gg\L	8gg\L	6
8BB/	8d\	.	8gg\	8gg\	.
8BB/	8d\	8r	8gg\	8gg\	.
8GG/J	8g\J	8bn\	8ffn\J	8ffn\J	7
8C/L	8g\L	8cc\L	8ee-\L	8ee-\L	b
8C/	8g\	8cc\	8ee-\	8ee-\	.
8C/	8g\	8cc\	8ee-\	8ee-\	.
8C/J	8e\J	8b-\J	8ee-\J	8ee-\J	7
*>A60	*>A60	*>A60	*>A60	*>A60	*>A60
!! Amsterdam print.
=60	=60	=60	=60	=60	=60
8BB/L	8d\L	4r	8gg\L	8gg\L	6
8BB/	8d\	.	8gg\	8gg\	.
8BB/	8d\	8r	8gg\	8gg\	.
8GG/J	8g\J	8bn\	8ffn\J	8ffn\J	7
8C/L	8g\L	8cc\L	8ee\L	8ee\L	b
8C/	8g\	8cc\	8ee\	8ee\	.
8C/	8g\	8cc\	8ee\	8ee\	.
8C/J	8e\J	8b-\J	8ee\J	8ee\J	7
*>etc3	*>etc3	*>etc3	*>etc3	*>etc3	*>etc3
=61	=61	=61	=61	=61	=61
8F\L	8c\L	8a/L	8ff\L	8ff\L	.
8F\	8c\	8a/	8ff\	8ff\	.
8F\	8c\	8a/	8ff\	8ff\	.
8F\J	8f\J	8a/J	8ee-\J	8ee-\J	b7
8BB-/L	8f\L	8b-\L	8dd\L	8dd\L	.
8BB-/	8f\	8b-\	8dd\	8dd\	.
8BB-/	8f\	8b-\	8dd\	8dd\	.
8BB-/J	8d\J	8a\J	8dd\J	8dd\J	7
=62	=62	=62	=62	=62	=62
8E-\L	8B-/L	8g/L	8ee-\L	8ee-\L	.
8E-\	8B-/	8g/	8ee-\	8ee-\	.
8E-\	8B-/	8g/	8ee-\	8ee-\	.
8E-\J	8d/J	8g/J	8dd\J	8dd\J	.
8AA/L	8e\L	8a\L	8cc#\L	8cc#\L	n5 #
8AA/	8e\	8eenx\	8cc#\	8cc#\	.
8AA/	8a\	8ee\	8cc#\	8cc#\	.
*>S62	*>S62	*>S62	*>S62	*>S62	*>S62
!! Selfridge-Field edition.
8AA/J	8a\J	8cc#\J	8een\J	8een\J	.
*>A62	*>A62	*>A62	*>A62	*>A62	*>A62
!! Amsterdam print.
8AA/J	8a\J	8cc#\J	8ee-\J	8ee-\J	.
*>etc4	*>etc4	*>etc4	*>etc4	*>etc4	*>etc4
=63	=63	=63	=63	=63	=63
8D/L	8a\L	8dd\L	8ff\L	8ff\L	.
8D/	8a\	8dd\	8ff\	8ff\	.
8D/	8a\	8dd\	8ff\	8ff\	.
8AA/J	8cc#\J	8ee\J	8gg\J	8gg\J	7 #
8D/L	8a\L	8dd\L	8ff\L	8ff\L	.
8D/	8a\	8dd\	8ff\	8ff\	.
8D/	8a\	8dd\	8ff\	8ff\	.
8AA/J	8cc#\J	8ee\J	8gg\J	8gg\J	7 #
=64	=64	=64	=64	=64	=64
8D/L	8a\L	8dd\L	8ff\L	8ff\L	.
8D/	8a\	8dd\	8ff\	8ff\	.
8D/	8a\	8dd\	8ff\	8ff\	.
8AA/J	8cc#\J	8ee\J	8gg\J	8gg\J	7 #
8D/L	8a\L	8dd\L	8ff\L	8ff\L	.
8D/	8a\	16cc#\L	16ee\L	16ee\L	.
.	.	16dd\JJ	16ff\JJ	16ff\JJ	.
8GG/	8b-\	8ee\L	8gg\L	8gg\L	.
8AA/J	8a\J	8cc#\J	8ee\J	8ee\J	#
=65	=65	=65	=65	=65	=65
4D\	4f\	4dd\	4ff\	4ff\	.
4r	4r	4r	4r	4r	.
8D/L	8A/L	8d/L	8f/L	8f/L	.
8D/	8A/	8d/	8f/	8f/	.
8D/	8A/	8d/	8f/	8f/	.
8AA/J	8c#/J	8e/J	8g/J	8g/J	7 #
=66	=66	=66	=66	=66	=66
8D/L	8A/L	8d/L	8f/L	8f/L	.
8D/	8A/	8d/	8f/	8f/	.
8D/	8A/	8d/	8f/	8f/	.
8AA/J	8c#/J	8e/J	8g/J	8g/J	7 #
8D/L	8A/L	8d/L	8f/L	8f/L	.
8D/	8A/	8d/	8f/	8f/	.
8D/	8A/	8d/	8f/	8f/	.
8AA/J	8c#/J	8e/J	8g/J	8g/J	#
=67	=67	=67	=67	=67	=67
8D/L	8A/L	8d/L	8f/L	8f/L	.
8D/	8A/	16c#/L	16e/L	16e/L	.
.	.	16d/JJ	16f/JJ	16f/JJ	.
8GG/	8B-/	8e/L	8g/L	8g/L	.
8AA/J	8A/J	8c#/J	8e/J	8e/J	#
4DD/	4A/	4d/	4f/	16f/LL	.
.	.	.	.	16d/	.
.	.	.	.	16d/	.
.	.	.	.	16A/JJ	.
4r	4r	4r	4r	16A/LL	.
.	.	.	.	16d/	.
.	.	.	.	16d/	.
.	.	.	.	16a/JJ	.
=68	=68	=68	=68	=68	=68
4D\	4d\	4r	4r	16a\LL	.
.	.	.	.	16dd\	.
.	.	.	.	16dd\	.
.	.	.	.	16ff\JJ	.
4r	4r	4d/	4d/	16ff\LL	.
.	.	.	.	16aa\	.
.	.	.	.	16aa\	.
.	.	.	.	16f\JJ	.
4D\	4d\	4r	4r	16f/LL	.
.	.	.	.	16d/	.
.	.	.	.	16d/	.
.	.	.	.	16A/JJ	.
4r	4r	4d/	4d/	16A/LL	.
.	.	.	.	16d/	.
.	.	.	.	16d/	.
.	.	.	.	16dd/JJ	.
=69	=69	=69	=69	=69	=69
4D\	4d\	4d/	4r	16dd\LL	.
.	.	.	.	16ff\	.
.	.	.	.	16ff\	.
.	.	.	.	16aa\JJ	.
4r	4r	4r	4d/	16aa\LL	.
.	.	.	.	16ddd\	.
.	.	.	.	16ddd\	.
.	.	.	.	16f/JJ	.
4D\	4d\	4d/	4r	16f/LL	.
.	.	.	.	16d/	.
.	.	.	.	16d/	.
.	.	.	.	16A/JJ	.
4r	4r	4r	4d/	16A/LL	.
.	.	.	.	16d/	.
.	.	.	.	16d/	.
.	.	.	.	16dd/JJ	.
=70	=70	=70	=70	=70	=70
8D\L	1r	1r	1r	[4dd\	.
8E\	.	.	.	.	.
8F\	.	.	.	(32dd\LLL]	.
.	.	.	.	32cc#\	.
.	.	.	.	32b\	.
.	.	.	.	32a\JJJ	.
8D\J	.	.	.	32bn\LLL	.
.	.	.	.	32cc#\	.
.	.	.	.	64dd\L	.
.	.	.	.	64ee\	.
.	.	.	.	64ff\	.
.	.	.	.	64gg\JJJJ)	.
2C/	.	.	.	[4aa\	6
.	.	.	.	(8.aa\L]	.
.	.	.	.	16ccnx\Jk)	.
=71	=71	=71	=71	=71	=71
8C/L	1r	1r	1r	[4cc\	.
8D/	.	.	.	.	.
8E/	.	.	.	(32cc\LLL]	.
.	.	.	.	32b-\	.
.	.	.	.	32a\	.
.	.	.	.	32g\JJJ	.
8C/J	.	.	.	32a\LLL	.
.	.	.	.	32b-\	.
.	.	.	.	64cc\L	.
.	.	.	.	64dd\	.
.	.	.	.	64ee\	.
.	.	.	.	64ff\JJJJ)	.
2BB-/	.	.	.	[4gg\	6
.	.	.	.	(8.gg\L]	.
.	.	.	.	16b-\Jk)	.
=72	=72	=72	=72	=72	=72
8BB-/L	1r	1r	1r	[4b-\	.
8C/	.	.	.	.	.
8D/	.	.	.	(32b-\LLL]	.
.	.	.	.	32a\	.
.	.	.	.	32g\	.
.	.	.	.	32f\JJJ	.
8BB-/J	.	.	.	32g\LLL	.
.	.	.	.	32a\	.
.	.	.	.	64b-\L	.
.	.	.	.	64cc\	.
.	.	.	.	64dd\	.
.	.	.	.	64ee\JJJJ)	.
4AA/	.	.	.	2ff\	6
4BBn/	.	.	.	.	6 5
=73	=73	=73	=73	=73	=73
4C/	1r	1r	1r	16ee\LL	.
.	.	.	.	16cc\	.
.	.	.	.	16c\	.
.	.	.	.	16bb-\JJ	.
4C/	.	.	.	16aa\LL	6 4
.	.	.	.	16ff\	.
.	.	.	.	16c\	.
.	.	.	.	16aa\JJ	.
4C/	.	.	.	16gg\LL	7 5
.	.	.	.	16ee\	.
.	.	.	.	16c\	.
.	.	.	.	16bb-\JJ	.
4C/	.	.	.	16aa\LL	6 4
.	.	.	.	16ff\	.
.	.	.	.	16c\	.
.	.	.	.	16aa\JJ	.
=74	=74	=74	=74	=74	=74
16C\LL	1r	1r	1r	4gg\	.
16c\	.	.	.	.	.
16G\	.	.	.	.	.
16E\JJ	.	.	.	.	.
8C/	.	.	.	32r	.
.	.	.	.	(32cc\LLL	.
.	.	.	.	32dd\	.
.	.	.	.	32ee\JJJ	.
8r	.	.	.	32ff\LLL	.
.	.	.	.	32gg\	.
.	.	.	.	32aa\	.
.	.	.	.	32bbn\JJJ)	.
8C\L	.	.	.	8ccc\	.
8D\	.	.	.	4bb\	n6
8E\	.	.	.	.	.
8F\J	.	.	.	[8aa\	.
=75	=75	=75	=75	=75	=75
8G\L	1r	1r	1r	8aa\]	9
8A\	.	.	.	4gg\	7
8Bn\	.	.	.	.	6
8G\J	.	.	.	8ff\	7
8.C\L	.	.	.	16ee/LL	.
.	.	.	.	16cc/J	.
.	.	.	.	8c/J	.
16c\Jk	.	.	.	.	.
4C/	.	.	.	16r	.
.	.	.	.	16ccc\LL	.
.	.	.	.	16bbn\	.
.	.	.	.	16aa\JJ	.
=76	=76	=76	=76	=76	=76
4GG/	1r	1r	1r	16G/LL	.
.	.	.	.	16bbn\	.
.	.	.	.	16aa\	.
.	.	.	.	16gg\JJ	.
4GG/	.	.	.	16G/LL	7 5
.	.	.	.	16aa\	.
.	.	.	.	16gg\	.
.	.	.	.	16ff\JJ	.
4GG/	.	.	.	16G/LL	6 4
.	.	.	.	16gg\	.
.	.	.	.	16ff\	.
.	.	.	.	16ee\JJ	.
4GG/	.	.	.	16G/LL	5 3
.	.	.	.	16ff\	.
.	.	.	.	16ee\	.
.	.	.	.	16dd\JJ	.
=77	=77	=77	=77	=77	=77
4GG/	2r	2r	2r	16G/LL	6 4 2
.	.	.	.	16ee\	.
.	.	.	.	16dd\	.
.	.	.	.	16cc\JJ	.
4GG/	.	.	.	16G/LL	n
.	.	.	.	16dd\	.
.	.	.	.	16cc\	.
.	.	.	.	16bn\JJ	.
8C/L	8cc\L	8ee\L	8gg\L	8cc\L	.
8C/	8cc\	8ee\	8gg\	8gg\	.
8C/	8cc\	8ee\	8gg\	8gg\	.
8FF/J	8cc\J	8ff\J	8aa\J	8aa\J	.
=78	=78	=78	=78	=78	=78
4C/	4cc\	4ee\	4gg\	4gg\	.
8C/L	8cc\L	8ee\L	8gg\L	8gg\L	.
8FF/J	8cc\J	8ff\J	8aa\J	8aa\J	.
8C/L	8cc\L	8ee\L	8gg\L	8gg\L	.
8C/	8cc\	8ee\	8gg\	8gg\	.
8C/	8cc\	8ee\	8gg\	8gg\	.
8FF/J	8cc\J	8ff\J	8aa\J	8aa\J	.
=79	=79	=79	=79	=79	=79
4C/	4cc\	4ee\	4gg\	4gg\	.
8C/L	8cc\L	8ee\L	8gg\L	8gg\L	.
8FF/J	8cc\J	8ff\J	8aa\J	8aa\J	.
8C\L	8cc\L	8ee\L	8gg\L	8gg\L	.
8C\	8cc\	16ff\L	16aa\L	16aa\L	.
.	.	16ee\JJ	16gg\JJ	16gg\JJ	.
8F\	8a\	8dd\L	8ff\L	8ff\L	.
8F#\J	8a\J	8cc\J	8ee\J	8ee\J	7
=80	=80	=80	=80	=80	=80
8G\L	8d\L	4bn\	4dd\	4dd\	n
8F\	8d\	.	.	.	.
8E\	8g\	8r	8r	8r	.
8D\J	8f\J	16cc\LL	16ee\LL	16ee\LL	.
.	.	16dd\JJ	16ff\JJ	16ff\JJ	.
8C\L	8e\L	8ee\	8gg\	8gg\	.
16c\L	16e\L	4ee\	4gg\	4gg\	.
*strophe	*	*	*	*	*
*^	*	*	*	*	*
*^	*	*	*	*	*	*
*S/S	*S/M	*S/A	*	*	*	*	*
16Bn\JJ	16Bn\JJ	16B-\JJ	16d\JJ	.	.	.	.
*S/fin	*S/fin	*S/fin	*	*	*	*	*
*v	*v	*v	*	*	*	*	*
*S-	*	*	*	*	*
8c\L	8e\L	.	.	.	.
8C\J	8e\J	16cc\LL	16ee\LL	16ee\LL	.
.	.	16dd\JJ	16ff\JJ	16ff\JJ	.
=81	=81	=81	=81	=81	=81
8r	8r	8ee\	8gg\	8gg\	.
16c\LL	16e\LL	4ee\	4gg\	4gg\	.
*strophe	*	*	*	*	*
*^	*	*	*	*	*
*^	*	*	*	*	*	*
*S/S	*S/M	*S/A	*	*	*	*	*
16Bn\JJ	16Bn\JJ	16B-\JJ	16d\JJ	.	.	.	.
*S/fin	*S/fin	*S/fin	*	*	*	*	*
*v	*v	*v	*	*	*	*	*
*S-	*	*	*	*	*
8c\L	8e\L	.	.	.	.
8C\J	8e\J	16dd\LL	16ff\LL	16ff\LL	.
.	.	16cc\JJ	16ee\JJ	16ee\JJ	.
8r	8r	8ff\	8aa\	8aa\	.
16c\LL	16e\LL	4ee\	4gg\	4gg\	.
16B\JJ	16d\JJ	.	.	.	.
8c\L	4e\	.	.	.	.
8C\J	.	16dd\LL	16ff\LL	16ff\LL	.
.	.	16cc\JJ	16ee\JJ	16ee\JJ	.
=82	=82	=82	=82	=82	=82
8r	8r	8ff\	8aa\	8aa\	.
16c\LL	16e\LL	4ee\	4gg\	4gg\	.
*strophe	*	*	*	*	*
*^	*	*	*	*	*
*^	*	*	*	*	*	*
*S/S	*S/M	*S/A	*	*	*	*	*
16Bn\JJ	16Bn\JJ	16B-\JJ	16d\JJ	.	.	.	.
*S/fin	*S/fin	*S/fin	*	*	*	*	*
*v	*v	*v	*	*	*	*	*
*S-	*	*	*	*	*
8c\L	4e\	.	.	.	.
8C\J	.	16f/LL	16a/LL	16a/LL	.
.	.	16g/JJ	16b-/JJ	16b-/JJ	.
8r	8r	8a/	8cc\	8cc\	.
16F\LL	16A/LL	4a/	4cc\	4cc\	.
16E\JJ	16G/JJ	.	.	.	.
*	*strophe	*	*	*	*
*	*^	*	*	*	*
*	*^	*	*	*	*	*
*	*S/S	*S/A	*S/M	*	*	*	*
8F/L	8A/L	8A/L	4A/	.	.	.	.
8FF/J	8A/J	8A/J	.	16f/LL	16a/LL	16a/LL	.
.	.	.	.	16g/JJ	16b-/JJ	16b-/JJ	.
*	*S/fin	*S/fin	*S/fin	*	*	*	*
*	*v	*v	*v	*	*	*	*
*	*S-	*	*	*	*
=83	=83	=83	=83	=83	=83
8r	8r	8a/	8cc\	8cc\	.
16F\LL	16A/LL	4a/	4cc\	4cc\	.
16E\JJ	16G/JJ	.	.	.	.
8F/L	8A/L	.	.	.	.
8FF/J	8A/J	16g/LL	16b-/LL	16b-/LL	.
.	.	16f/JJ	16a/JJ	16a/JJ	.
8r	8r	8b-\	8dd\	8dd\	.
16F\LL	16A/LL	4a/	4cc\	4cc\	.
16E\JJ	16G/JJ	.	.	.	.
8F/L	4A/	.	.	.	.
8FF/J	.	16g/LL	16b-/LL	16b-/LL	.
.	.	16f/JJ	16a/JJ	16a/JJ	.
=84	=84	=84	=84	=84	=84
8r	8r	8b-\	8dd\	8dd\	.
16F\LL	16A/LL	4a/	4cc\	4cc\	.
16E\JJ	16G/JJ	.	.	.	.
8F/L	4A/	.	.	.	.
8FF/J	.	16a/LL	16cc\LL	16cc\LL	.
.	.	16b-/JJ	16dd\JJ	16dd\JJ	.
8r	8r	8cc\	8ee-\	8ee-\	.
16F\LL	16a\LL	4cc\	4ee-\	4ee-\	b7
16E\JJ	16g\JJ	.	.	.	.
8F/L	4a\	.	.	.	.
8FF/J	.	16b-/LL	16dd\LL	16dd\LL	.
.	.	16a/JJ	16cc\JJ	16cc\JJ	.
=85	=85	=85	=85	=85	=85
8r	8r	8b-\	8dd\	8dd\	.
16B-\LL	8f\	4b-\	4dd\	4dd\	.
16A\JJ	.	.	.	.	.
8B-\L	4f\	.	.	.	.
8BB-\J	.	16b-\LL	16dd\LL	16dd\LL	.
.	.	16cc\JJ	16een\JJ	16een\JJ	.
8r	8r	8dd\	8ff\	8ff\	.
16G\LL	16bn\LL	4dd\	4ff\	4ff\	7 n
16F\JJ	16a\JJ	.	.	.	.
8G/L	4b\	.	.	.	.
8GG/J	.	16cc\LL	16ee\LL	16ee\LL	.
.	.	16bn\JJ	16dd\JJ	16dd\JJ	.
=86	=86	=86	=86	=86	=86
8r	8r	8cc\	8ee\	8ee\	.
16c\LL	8g\	4cc\	4ee\	4ee\	.
16B-\JJ	.	.	.	.	.
8c\L	4g\	.	.	.	.
8C\J	.	16ee\LL	16gg\LL	16gg\LL	.
.	.	16ff\JJ	16aa\JJ	16aa\JJ	.
8r	8r	8gg\	8bb-\	8bb-\	.
16c\LL	16e\LL	4gg\	4bb-\	4bb-\	7
16B-\JJ	16d\JJ	.	.	.	.
*	*strophe	*	*	*	*
*	*^	*	*	*	*
*	*^	*	*	*	*	*
*	*S/S	*S/A	*S/M	*	*	*	*
8c\L	8e\L	8e\L	4e\	.	.	.	.
8C\J	8e\J	8e\J	.	16ff\LL	16aa\LL	16aa\LL	.
.	.	.	.	16ee\JJ	16gg\JJ	16gg\JJ	.
*	*S/fin	*S/fin	*S/fin	*	*	*	*
*	*v	*v	*v	*	*	*	*
*	*S-	*	*	*	*
=87	=87	=87	=87	=87	=87
4FF/	4c\	4ff\	4aa\	4aa\	.
4r	4r	4r	4r	32r	.
.	.	.	.	(32ff\LLL	.
.	.	.	.	32gg\	.
.	.	.	.	32aa\JJJ	.
.	.	.	.	32bb-\LLL	.
.	.	.	.	32ccc\	.
.	.	.	.	32ddd\	.
.	.	.	.	32eee\JJJ)	.
2r	2r	2r	2r	16fff\LL	.
.	.	.	.	16ccc\	.
.	.	.	.	16aa\	.
.	.	.	.	16ccc\JJ	.
.	.	.	.	16fff\LL	.
.	.	.	.	16ccc\	.
.	.	.	.	16aa\	.
.	.	.	.	16ff\JJ	.
=88	=88	=88	=88	=88	=88
4FF/	1r	1r	1r	4f/	.
4r	.	.	.	32r	.
.	.	.	.	(32ff\LLL	.
.	.	.	.	32gg\	.
.	.	.	.	32aa\JJJ	.
.	.	.	.	32bb-\LLL	.
.	.	.	.	32ccc\	.
.	.	.	.	32ddd\	.
.	.	.	.	32eee\JJJ)	.
2r	.	.	.	16fff\LL	.
.	.	.	.	16ccc\	.
.	.	.	.	16aa\	.
.	.	.	.	16ccc\JJ	.
.	.	.	.	16fff\LL	.
.	.	.	.	16ccc\	.
.	.	.	.	16aa\	.
.	.	.	.	16ff\JJ	.
=89	=89	=89	=89	=89	=89
4FF/	1r	2r	2r	4f/	.
4r	.	.	.	4r	.
!	!	!	! Larghetto	! Larghetto	!
2r	.	8a-/L	8cc\L	[2cc\	.
.	.	8a-/	8cc\	.	.
.	.	8a-/	8cc\	.	.
.	.	8a-/J	8cc\J	.	.
=90	=90	=90	=90	=90	=90
1r	1r	8a-/L	8cc\L	4cc\]	.
.	.	8a-/	8cc\	.	.
.	.	8a-/	8cc\	4aa-\	.
.	.	8a-/J	8cc\J	.	.
.	.	8g/L	8b-\L	[2b-\	.
.	.	8g/	8b-\	.	.
.	.	8g/	8b-\	.	.
.	.	8g/J	8b-\J	.	.
=91	=91	=91	=91	=91	=91
1r	1r	8g/L	8b-\L	4b-\]	.
.	.	8g/	8b-\	.	.
.	.	8g/	8b-\	4gg\	.
.	.	8g/J	8b-\J	.	.
.	.	8f/L	8a-/L	[2a-/	.
.	.	8f/	8a-/	.	.
.	.	8f/	8a-/	.	.
.	.	8f/J	8a-/J	.	.
=92	=92	=92	=92	=92	=92
1r	1r	8f/L	8a-/L	4a-/]	.
.	.	8f/	8a-/	.	.
.	.	8f/	8a-/	4ff\	.
.	.	8f/J	8a-/J	.	.
.	.	8e/L	8g/L	2g/	.
.	.	8e/	8g/	.	.
.	.	8e/	8g/	.	.
.	.	8e/J	8g/J	.	.
=93	=93	=93	=93	=93	=93
1r	1r	8f/L	8a-/L	1f/	.
.	.	8f/	8a-/	.	.
.	.	8f/	8a-/	.	.
.	.	8f/J	8a-/J	.	.
.	.	8f/L	8a-/L	.	.
.	.	8f/	8a-/	.	.
.	.	8f/	8a-/	.	.
.	.	8f/J	8a-/J	.	.
=94	=94	=94	=94	=94	=94
1r	1r	8a-/L	8cc\L	[2cc\	.
.	.	8a-/	8cc\	.	.
.	.	8a-/	8cc\	.	.
.	.	8a-/J	8cc\J	.	.
.	.	8a-/L	8cc\L	4cc\]	.
.	.	8a-/	8cc\	.	.
.	.	8a-/	8cc\	4aa-\	.
.	.	8a-/J	8cc\J	.	.
=95	=95	=95	=95	=95	=95
1r	1r	8g/L	8b-\L	[2b-\	.
.	.	8g/	8b-\	.	.
.	.	8g/	8b-\	.	.
.	.	8g/J	8b-\J	.	.
.	.	8g/L	8b-\L	4b-\]	.
.	.	8g/	8b-\	.	.
.	.	8g/	8b-\	4gg\	.
.	.	8g/J	8b-\J	.	.
=96	=96	=96	=96	=96	=96
1r	1r	8f/L	8a-/L	[2a-/	.
.	.	8f/	8a-/	.	.
.	.	8f/	8a-/	.	.
.	.	8f/J	8a-/J	.	.
.	.	8f/L	8a-/L	4a-/]	.
.	.	8f/	8a-/	.	.
.	.	8f/	8a-/	4ff\	.
.	.	8f/J	8a-/J	.	.
=97	=97	=97	=97	=97	=97
1r	2c\	8c/L	8g/L	1ee\	.
.	.	16e/L	16g/L	.	.
.	.	16d/JJ	16f/JJ	.	.
.	.	8e/L	8g/L	.	.
.	.	8e/J	8g/J	.	.
.	2c\	8r	8r	.	.
.	.	16e/LL	16g/LL	.	.
.	.	16d/JJ	16f/JJ	.	.
.	.	8e/L	8g/L	.	.
.	.	8e/J	8cc/J	.	.
=98	=98	=98	=98	=98	=98
1r	2F/	8r	8r	1ee-\	.
.	.	16a/LL	16cc\LL	.	.
.	.	16g/JJ	16b-\JJ	.	.
.	.	8a/L	8cc\L	.	.
.	.	8a/J	8cc\J	.	.
.	2F/	8r	8r	.	.
.	.	16a/LL	16cc\LL	.	.
.	.	16g/JJ	16b-\JJ	.	.
.	.	8a/L	8cc/L	.	.
.	.	8a/J	8f/J	.	.
=99	=99	=99	=99	=99	=99
1r	2B-/	8r	8r	1dd\	.
.	.	16d/LL	16f/LL	.	.
.	.	16c/JJ	16e/JJ	.	.
.	.	8d/L	8f/L	.	.
.	.	8d/J	8f/J	.	.
.	2B-/	8r	8r	.	.
.	.	16d/LL	16f/LL	.	.
.	.	16c/JJ	16e/JJ	.	.
.	.	8d/L	8f/L	.	.
.	.	8d/J	8b-/J	.	.
=100	=100	=100	=100	=100	=100
1r	2E/	8r	8r	1dd-\	.
.	.	16g/LL	16b-/LL	.	.
.	.	16f/JJ	16a-/JJ	.	.
.	.	8g/L	8b-\L	.	.
.	.	8g/J	8b-\J	.	.
.	2E/	8r	8r	.	.
.	.	16g/LL	16b-/LL	.	.
.	.	16f/JJ	16a-/JJ	.	.
.	.	8g\L	8b-\L	.	.
.	.	8dd-\J	8b-\J	.	.
=101	=101	=101	=101	=101	=101
1r	2F/	8r	8r	[1cc\	.
.	.	16f/LL	16a-/LL	.	.
.	.	16e/JJ	16g/JJ	.	.
.	.	8f/L	8a-/L	.	.
.	.	8f/J	8a-/J	.	.
.	2f\	8r	8r	.	.
.	.	16ff\LL	16aa-\LL	.	.
.	.	16ee\JJ	16gg\JJ	.	.
.	.	8ff\L	8aa-\L	.	.
.	.	8ff\J	8aa-\J	.	.
=102	=102	=102	=102	=102	=102
1r	2c\	8r	8r	1cc_\	.
.	.	16ee\LL	16gg\LL	.	.
.	.	16dd\JJ	16ff\JJ	.	.
.	.	8ee\L	8gg\L	.	.
.	.	8ee\J	8gg\J	.	.
.	2F/	8r	8r	.	.
.	.	16f/LL	16a-/LL	.	.
.	.	16e/JJ	16g/JJ	.	.
.	.	8f/L	8a-/L	.	.
.	.	8f/J	8a-/J	.	.
=103	=103	=103	=103	=103	=103
1r	2C/	8r	8r	1cc_\	.
.	.	16e/LL	16g/LL	.	.
.	.	16d/JJ	16f/JJ	.	.
.	.	8e/L	8g/L	.	.
.	.	8e/J	8g/J	.	.
.	2f\	8r	8r	.	.
.	.	16ff\LL	16aa-\LL	.	.
.	.	16ee\JJ	16gg\JJ	.	.
.	.	8ff\L	8aa-\L	.	.
.	.	8ff\J	8aa-\J	.	.
=104	=104	=104	=104	=104	=104
1r	2c\	8r	8r	1cc_\	.
.	.	16ee\LL	16gg\LL	.	.
.	.	16dd\JJ	16ff\JJ	.	.
.	.	8ee\L	8gg\L	.	.
.	.	8ee\J	8gg\J	.	.
.	2F/	8r	8r	.	.
.	.	16f/LL	16a-/LL	.	.
.	.	16e/JJ	16g/JJ	.	.
.	.	8f/L	8a-/L	.	.
.	.	8f/J	8a-/J	.	.
=105	=105	=105	=105	=105	=105
1r	1C;/	8r	8r	1cc;\]	.
.	.	16e/LL	16g/LL	.	.
.	.	16d/JJ	16f/JJ	.	.
.	.	8e/L	8g/L	.	.
.	.	8e/J	8g/J	.	.
.	.	2r	2r	.	.
=106	=106	=106	=106	=106	=106
!! Allegro assai
!! Amsterdam print: Allegro molto
8F\L	8a\L	8ff\L	8aa\L	8aa\L	.
8F\	8a\	8ff\	8aa\	8aa\	.
8F\	8a\	8ff\	8aa\	8aa\	.
8C\J	8e\J	8gg\J	8bb-\J	8bb-\J	7
4F\	4a\	4ff\	4aa\	4aa\	.
8F\L	8a\L	8ff\L	8aa\L	8aa\L	.
8C\J	8e\J	8gg\J	8bb-\J	8bb-\J	7
=107	=107	=107	=107	=107	=107
8F\L	8a\L	8ff\L	8aa\L	8aa\L	.
8F\	8a\	8ff\	8aa\	8aa\	.
8F\	8a\	8ff\	8aa\	8aa\	.
8C\J	8e\J	8gg\J	8bb-\J	8bb-\J	7
4F\	4a\	4ff\	4aa\	4aa\	.
8F\L	8a\L	8ff\L	8aa\L	8aa\L	.
8C\J	8e\J	8gg\J	8bb-\J	8bb-\J	7
=108	=108	=108	=108	=108	=108
8F\L	8a\L	8ff\L	8aa\L	8aa\L	.
8F\	8a\	16ee\L	16gg\L	16gg\L	.
.	.	16ff\JJ	16aa\JJ	16aa\JJ	.
8BB-\	8d\	8gg\L	8bb-\L	8bb-\L	.
8BBn\J	8d\J	8ff\J	8aa\J	8aa\J	7
4C/	4e\	4ee\	4gg\	4gg\	.
4r	4r	4r	4r	4r	.
=109	=109	=109	=109	=109	=109
8F\L	8cc\L	8ff\L	8aa\L	8aa\L	.
8A\	8cc\	8ff\	8aa\	8aa\	.
8A\	8cc\	8ff\	8aa\	8aa\	.
8F\J	8cc\J	8aa\J	8ccc\J	8ccc\J	.
4G\	4b-\	4b-\	4dd\	4dd\	.
8G\L	8b-\L	8b-\L	8dd\L	8dd\L	.
8G\J	8b-\J	8b-\J	8dd\J	8dd\J	.
=110	=110	=110	=110	=110	=110
8G\L	8b-\L	8ee\L	8gg\L	8gg\L	6
8c\	8b-\	8ee\	8gg\	8gg\	7
8c\	8b-\	8ee\	8gg\	8gg\	.
8C\J	8b-\J	8gg\J	8bb-\J	8bb-\J	.
4F\	4a\	4a/	4cc\	4cc\	.
8F\L	8a\L	8a\L	8cc\L	8cc\L	.
8F\J	8a\J	8cc\J	8ff\J	8ff\J	.
=111	=111	=111	=111	=111	=111
8F\L	8cc\L	8ff\L	8aa\L	8aa\L	.
8F\	8cc\	8ff\	8aa\	8aa\	.
8F\	8cc\	8ff\	8aa\	8aa\	.
8C\J	8e\J	8gg\J	8bb-\J	8bb-\J	7
8F\L	8cc\L	8ff\L	8aa\L	8aa\L	.
8F\	8cc\	8ff\	8aa\	8aa\	.
8F\	8cc\	8ff\	8aa\	8aa\	.
8C\J	8e\J	8gg\J	8bb-\J	8bb-\J	7
=112	=112	=112	=112	=112	=112
8F\L	8cc\L	8ff\L	8aa\L	8aa\L	.
8F\	8cc\	8ff\	8aa\	8aa\	.
8F\	8cc\	8ff\	8aa\	8aa\	.
8C\J	8e\J	8gg\J	8bb-\J	8bb-\J	7
8F\L	8cc\L	8ff\L	8aa\L	8aa\L	.
8F\	8cc\	16ee\L	16gg\L	16gg\L	.
.	.	16ff\JJ	16aa\JJ	16aa\JJ	.
8BB-\	8d\	8gg\L	8bb-\L	8bb-\L	.
8C\J	8c\J	8ee\J	8gg\J	8gg\J	.
=113	=113	=113	=113	=113	=113
4FF/	4c\	4ff\	4aa\	4aa\	.
4r	4r	4r	4r	4r	.
8FF/L	8c/L	8f/L	8a/L	8a/L	.
8FF/	8c/	8f/	8a/	8a/	.
8FF/	8c/	8f/	8a/	8a/	.
8CC/J	8E/J	8g/J	8b-/J	8b-/J	7
=114	=114	=114	=114	=114	=114
8FF/L	8c/L	8f/L	8a/L	8a/L	.
8FF/	8c/	8f/	8a/	8a/	.
8FF/	8c/	8f/	8a/	8a/	.
8CC/J	8E/J	8g/J	8b-/J	8b-/J	7
8FF/L	8c/L	8f/L	8a/L	8a/L	.
8FF/	8c/	8f/	8a/	8a/	.
8FF/	8c/	8f/	8a/	8a/	.
8CC/J	8E/J	8g/J	8b-/J	8b-/J	7
=115	=115	=115	=115	=115	=115
8FF/L	8c\L	8f/L	8a/L	8a/L	.
8FF/	8c\	16e/L	16g/L	16g/L	.
.	.	16f/JJ	16a/JJ	16a/JJ	.
8BB-/	8d\	8g/L	8b-/L	8b-/L	.
8C/J	8c\J	8e/J	8g/J	8g/J	.
2FF;/	2A;/	2f;/	2f;/	2f;/	.
==|!	==|!	==|!	==|!	==|!	==|!
*-	*-	*-	*-	*-	*-
!!!CDT: 1678/3/4/-1741/7/28
!!!OCY: Italia
!!!ODE: Count Wenzeslaus von Morzin of Bohemia; Count Wenceslas of Morzin
!!!ODT: 1725///
!!!OPC: Venezia; Venice
!!!AGN: concerto
!!!AST: baroque
!!!AMT: simple quadruple
!!!PPR: Michel-Charles Le Ce`ne
!!!PC#: Le Cene No. 520
!!!PDT: 1725///
!!!PPP: Amsterdam
!!!SCT: RV 293
!!!SMA1: The cooperation of the following libraries is gratefully acknowledged:
!!!SMA2: Saechsische Landesbibliothek, Dresden; Biblioteca Nazionale
!!!SMA3: Universitaria, Turin; Henry Watson Music Library, Manchester.
!!!YOR: New York: Dover Publications, Inc. 1995
!!!AIN: cello cemba viola violn
!!!EEV: 1.0
!!!RDT: 1994/4/5/
!!!YER: 1996/10/31/
!!!YEP: Center for Computer Assisted Research in the Humanities
!!!YEN: United States of America
!!!EFL: 1/3
!!!ENC: Edmund Correia, Jr.
!!!EED: Eleanor Selfridge-Field
